!!!COM: Buxtehude, Dietrich
!!!CDT: ~1637///-1707/05/09/
!!!ODT: ~1694///
!!!OTL: Sonata in A Minor, Op. 1, No. 3
!!!OPS: Op. 1
!!!ONM: No. 3
!!!SCA: BuxWV 254
!!!OMD: 6. Presto
!!!URL: http://www.lysator.liu.se/~tuben/scores
!!!ONB: Johan Tufvessons, ed.
**kern	**kern	**kern
*staff3	*staff2	*staff1
*Icemba	*Iviola	*Ivioln
*clefF4	*clefC3	*clefG2
*k[]	*k[]	*k[]
*met(C)	*met(C)	*met(C)
*M4/4	*M4/4	*M4/4
*MM132	*MM132	*MM132
=199-	=199-	=199-
*met(C)	*met(C)	*met(C)
*M4/4	*M4/4	*M4/4
8G\L	8r	2r
8F\	8d\	.
8E\	16g\LL	.
.	16a\	.
8D\J	16f\	.
.	16g\JJ	.
8C/L	8e\L	8r
8BB/	8d\	8g/
8AA/	8e\	16cc\LL
.	.	16dd\
8GG/J	8g\J	16b\
.	.	16cc\JJ
=200	=200	=200
8D\L	8f#\L	8a/L
8E\J	8g\	8g/
8C/L	8.g\	8a/
8D/J	.	8cc/J
.	16f#\Jk	.
8GG/L	4g\	8b\L
8AA/	.	8cc\
8BB/	4r	8dd\
8GG/J	.	8b\J
=201	=201	=201
8C/L	8r	8ee\L
8BB-/	8G/	8gg\
8AA/	16c\LL	8ff\
.	16d\	.
8GG/J	16B-\	8ee\J
.	16c\JJ	.
8FF/L	8A/L	8dd\L
8EE/	8G/	8cc\J
8DD/	8A/	16ff\LL
.	.	16gg\
8CC/J	8c/J	16ee\
.	.	16ff\JJ
=202	=202	=202
8GG/L	8B/L	8dd\L
8AA/	8c/	8cc\
8FF/	8.c/	8dd\
8GG/J	.	8ff\J
.	16B/Jk	.
8CC/L	8c\L	8.ee\L
8C/	16c\L	.
.	16d\JJ	16ff\k
8E/	8.c/L	8gg\
8C/J	.	8ee\J
.	16B-/Jk	.
=203	=203	=203
8F\L	8A/	8aa\L
8G\	8r	8bb-\
8F\	8r	8aa\
8E\J	8c\	8gg\J
8D\L	8d/L	8ff\L
8E\	8c/	8ee\
8F\	8.B/	8.dd\
8D\J	.	.
.	16A/Jk	16cc\Jk
=204	=204	=204
8E\L	4G#/	4b\
8D\J	.	.
8C/L	8r	8r
8AA/J	8A/	8cc\
8E\L	4G#/	4b\
8D\J	.	.
8C/L	8r	8r
8AA/J	8A/	8cc\
=205	=205	=205
8E/L	4G#/	4b\
8EE/J	.	.
8E\L	8r	8r
8C\J	8c\	8ee\
8D\L	8B/L	8ff\L
8E\	8G#/	8ee\
8F\	8A/	8dd\
8C\J	8c/J	8ee\J
=206	=206	=206
8D\L	8B/L	8ff\L
8E\	8G#/	8ee\
8F\	8A/	8dd\
8C\J	8A/J	8ee\J
8D/L	8A/L	8ff\L
8BB/J	8A/	8dd\
8E/L	8.A/	8.cc\
8EE/J	.	.
.	16G#/Jk	16b\Jk
=207	=207	=207
8AA/L	8A/	16a\LL
.	.	16aa\
8BB/	8r	16gg\
.	.	16ff\JJ
8C/	4r	16ee\LL
.	.	16aa\
8AA/J	.	16gg\
.	.	16aa\JJ
8D\L	16r	8ff\L
.	16d\LL	.
8E\	16c\	8gg\
.	16B-\JJ	.
8F\	16A\LL	8aa\
.	16d\	.
8D\J	16c\	8ff\J
.	16d\JJ	.
=208	=208	=208
8G\L	8B/L	16dd\LL
.	.	16gg\
8AA\J	8c/	16ff\
.	.	16ee\JJ
8BB/L	8d/	16dd\LL
.	.	16gg\
8GG/J	8B/J	16ff\
.	.	16gg\JJ
8C/L	16G/LL	8ee\L
.	16c/	.
8D/J	16B-/	8ff\
.	16A/JJ	.
8E\L	16G/LL	8gg\
.	16c/	.
8C\J	16B-/	8ee\J
.	16c/JJ	.
=209	=209	=209
8F\L	4A/	16cc\LL
.	.	16aa\
8E\	.	16gg\
.	.	16aa\JJ
8D\	8B/L	16ff\LL
.	.	16gg\
8C\J	8c/J	16ee\
.	.	16ff\JJ
8G\L	[4B/	16dd/LL
.	.	16d/
8F\	.	16e/
.	.	16f/JJ
8E\	16B/LL]	8g/L
.	16G/	.
8D\J	16A/	8f/J
.	16B/JJ	.
=210	=210	=210
8C/L	8c\	16e\LL
.	.	16gg\
8D/	8r	16ff\
.	.	16gg\JJ
8C/	4r	16ee\LL
.	.	16ff\
8BB/J	.	16dd\
.	.	16ee\JJ
8AA/L	16r	16cc\LL
.	16e\LL	16ccc\
8BB/	16d\	16bb\
.	16e\JJ	16ccc\JJ
8C/	16c\LL	16aa\LL
.	16d\	16bb\
8AA/J	16B\	16gg\
.	16c\JJ	16aa\JJ
=211	=211	=211
8D/L	8A/L	8ff#\
8C/J	8A/J	8r
8BB/L	16d\LL	4r
.	16e\	.
8AA/J	16c\	.
.	16d\JJ	.
8GG/L	8B/L	8r
8FF#/	8A/	8dd\
8EE/	8B/	16gg\LL
.	.	16aa\
8DD/J	8d/J	16ff#\
.	.	16gg\JJ
=212	=212	=212
8AA/L	8c#\L	8ee\L
8BB/	8d\	8dd\
8GG/	8.d\	8ee\
8AA/J	.	8gg\J
.	16c#\Jk	.
8D\L	4d\	8ff#\L
8E\J	.	8gg\
8F#\L	4r	8aa\
8D\J	.	8ff#\J
=213	=213	=213
8G\L	8r	8bb\
8F\	8d\	8r
8E\	16g\LL	4r
.	16a\	.
8D\J	16f\	.
.	16g\JJ	.
8C/L	8e\L	8r
8BB/	8d\	8g/
8AA/	8e\	16cc\LL
.	.	16dd\
8GG/J	8g\J	16b\
.	.	16cc\JJ
=214	=214	=214
8D\L	8f#\L	16a\LL
.	.	16dd\
8E\J	8g\	16cc\
.	.	16b\JJ
8F#\L	8a\	16a\LL
.	.	16dd\
8D\J	8f#\J	16cc\
.	.	16dd\JJ
8G\L	16r	8b\L
.	16g\LL	.
8A\	16fn\	8cc\
.	16e\JJ	.
8B\	16d\LL	8dd\
.	16g\	.
8G\J	16f\	8b\J
.	16g\JJ	.
=215	=215	=215
8c\L	8e\	16ee\LL
.	.	16gg\
8d\	8r	16ff\
.	.	16gg\JJ
8c\	8r	16ee\LL
.	.	16ff\
8B\J	8g\	16dd\
.	.	16ee\JJ
8A\L	8a\L	16cc\LL
.	.	16dd\
8B\	8g\	16b\
.	.	16cc\JJ
8c\	8.f#\	16a\LL
.	.	16b\J
8A\J	.	8cc\J
.	16e\Jk	.
=216	=216	=216
8B\L	4d#\	4f#/
8A\	.	.
8G\	8r	8r
8E\J	8e\	8g/
8B\L	4d#\	4f#/
8A\	.	.
8G\	8r	8r
8E\J	8e\	8g/
=217	=217	=217
8B\L	4d#\	4f#/
8BB\J	.	.
8B\L	8r	8r
8G\J	8g\	8b\
8A\L	8f#\L	8cc\L
8B\	8d#\	8b\
8c\	8e\	8a\
8G\J	8g\J	8b\J
=218	=218	=218
8A\L	8f#\L	8cc\L
8B\	8d#\	8b\
8c\	8e\	8a\
8G\J	8e\J	8b\J
8A\L	8e\L	8cc/L
8F#\J	8e\	8a/
8B\L	8.e\	8.g/
8BB\J	.	.
.	16d#\Jk	16f#/Jk
=219	=219	=219
8E\L	4e\	16e\LL
.	.	16ee\
8F#\J	.	16dd\
.	.	16cc\JJ
8G\L	4r	16b\LL
.	.	16ee\
8E\J	.	16dd\
.	.	16ee\JJ
8A\L	16r	8cc\L
.	16a\LL	.
8B\	16g\	8dd\
.	16f\JJ	.
8c\	16e\LL	8ee\
.	16a\	.
8A\J	16g\	8cc\J
.	16a\JJ	.
=220	=220	=220
8d\L	8f#\L	16a\LL
.	.	16dd\
8E\J	8g\	16cc\
.	.	16b\JJ
8F#\L	8a\	16a\LL
.	.	16dd\
8D\J	8f#\J	16cc\
.	.	16dd\JJ
8G\L	16d\LL	8b\L
.	16g\	.
8A\	16fn\	8cc\
.	16e\JJ	.
8B\	16d\LL	8dd\
.	16g\	.
8G\J	16f\	8b\J
.	16g\JJ	.
=221	=221	=221
8c\L	4e\	16g\LL
.	.	16ee\
8B\	.	16dd\
.	.	16ee\JJ
8A\	8f#\L	16cc\LL
.	.	16dd\
8G\J	8g\J	16b\
.	.	16cc\JJ
8d\L	[4f#\	16a/LL
.	.	16a/
8c\	.	16b/
.	.	16cc/JJ
8B\	16f#\LL]	8dd\L
.	16d\	.
8A\J	16e\	8cc\J
.	16f#\JJ	.
=222	=222	=222
8G\L	16g\	8b\L
*	*clefF4	*
.	16G\LL	.
8F\	16F\	8dd\J
.	16G\JJ	.
8E\	16E\LL	16gg\LL
.	16F\	16aa\
8D\J	16D\	16ff\
.	16E\JJ	16gg\JJ
8C/L	16C/LL	16ee\LL
.	16D/	16ff\
8BB/	16BB/	16dd\
.	16C/JJ	16ee\JJ
8AA/	16AA/LL	16cc\LL
.	16BB/J	16dd\
8GG/J	8GG/J	16b\
.	.	16cc\JJ
=223	=223	=223
8D\L	8D\L	16a/LL
.	.	16b/
8E\J	8E\	16g/
.	.	16a/JJ
8C/L	8C\	16b\LL
.	.	16cc\
8D/J	8D\J	16a\
.	.	16b\JJ
8GG/L	8GG/	16g\LL
.	.	16gg\
8AA/	8r	16ff\
.	.	16ee\JJ
8BB/	4r	16dd\LL
.	.	16gg\
8GG/J	.	16ff\
.	.	16gg\JJ
*	*clefC3	*
=224	=224	=224
8C/L	8r	8ee\
8BB/	8G/	8r
8AA/	16c\LL	4r
.	16d\	.
8GG/J	16B-\	.
.	16c\JJ	.
8FF/L	8A/L	8r
8EE/	8G/	8cc\
8DD/	8A/	16ff\LL
.	.	16gg\
8CC/J	8c/J	16ee\
.	.	16ff\JJ
=225	=225	=225
8GG/L	4B/	4dd\
8G/	.	.
8E/	8r	8r
8C/J	8c\	8ee\
8G\L	4B/	4dd\
8F\	.	.
8E\	8r	8r
8C\J	8c\	8ee\
=226	=226	=226
8G/L	4B/	4dd\
8GG/J	.	.
8G\L	8r	8r
8E\J	8g\	8ee\
8F\L	8a\L	8dd\L
8E\	8g\	8cc\
8D\	8f\	8b\
8E\J	8g\J	8cc\J
=227	=227	=227
8F\L	8a\L	8dd\L
8E\	8g\	8cc\
8D\	8f\	8b\
8E\J	8g\J	8cc\J
8F\L	8a\L	8cc\L
8D\J	8f\	8cc\
8G/L	8.e\	8.cc\
8GG/J	.	.
.	16d\Jk	16b\Jk
=228	=228	=228
8C/L	8e\L	16cc\LL
.	.	16ccc\
8D/J	8f\	16bb-\
.	.	16aa\JJ
8E\L	8g\	16gg\LL
.	.	16ccc\
8C\J	8e\J	16bb-\
.	.	16ccc\JJ
8F\L	16c\LL	8aa\L
.	16f\	.
8G\	16e\	8bb-\
.	16d\JJ	.
8A\	16c\LL	8ccc\
.	16d\	.
8G\J	16e\	8bb-\J
.	16e\JJ	.
=229	=229	=229
8F\L	4f\	16aa\LL
.	.	16ccc\
8G\	.	16bb-\
.	.	16ccc\JJ
8F\	8r	16aa\LL
.	.	16bb-\
8E\J	8c\	16gg\
.	.	16aa\JJ
8D\L	8d/L	16ff\LL
.	.	16gg\
8E\	8c/	16ee\
.	.	16ff\JJ
8F\	8.B/	16dd\LL
.	.	16ee\J
8D\J	.	8ff\J
.	16A/Jk	.
=230	=230	=230
8E\L	4G#/	4b\
8D\J	.	.
8C/L	8r	8r
8AA/J	8A/	8cc\
8E\L	4G#/	4b\
8D\J	.	.
8C/L	8r	8r
8AA/J	8A/	8cc\
=231	=231	=231
8E\L	4G#/	4b\
8D\J	.	.
8C/L	8r	8r
8AA/J	8c\	8ee\
8D\L	8B/L	8ff\L
8E\	8G#/	8ee\
8F\	8A/	8dd\
8C\J	8c/J	8ee\J
=232	=232	=232
8D\L	8B/L	8ff\L
8E\	8G#/	8ee\
8F\	8A/	8dd\
8C\J	8A/J	8ee\J
8D/L	8A/L	8ff\L
8BB/J	8A/	8dd\J
8E/L	8.A/	8.cc\L
8EE/J	.	.
.	16G#/Jk	16b\Jk
=233	=233	=233
8AA/L	16A/LL	16a\LL
*	*clefF4	*
.	16AA/J	16aa\
8BB/	8BB/J	16gg\
.	.	16ff\JJ
8C/	8C/L	16ee\LL
.	.	16gg\
8AA/J	8AA/J	16ff\
.	.	16ee\JJ
8D\L	8D\L	16ff\LL
.	.	16dd\
8E\	8E\	16cc\
.	.	16b\JJ
8F\	8F\	16a/LL
.	.	16cc/
8D\J	8D\J	16b/
.	.	16a/JJ
=234	=234	=234
8E\	16E\LL	8g#/
.	16e\	.
8r	16d\	8r
.	16c\JJ	.
4r	16B\LL	4r
.	16d\	.
.	16c\	.
.	16B\JJ	.
8E\	16c\LL	8a/
.	16d\	.
8r	16c\	8r
.	16B\JJ	.
4r	16A\LL	4r
.	16c\	.
.	16B\	.
.	16A\JJ	.
=235	=235	=235
8E\	16G#\LL	8b\
.	16A\	.
8r	16B\	8r
.	16c\JJ	.
4r	16B\LL	4r
.	16d\	.
.	16c\	.
.	16B\JJ	.
8E\	16A\LL	8cc\
.	16A\	.
8r	16Gn\	8r
.	16F\JJ	.
4r	16E/LL	8r
.	16D/	.
.	16C/	8ee\
.	16AA/JJ	.
=236	=236	=236
8r	4E\	8g#/L
8E/L	.	8e/J
8C/	8r	16ee\LL
.	.	16ee\
8AA/J	8AA/	16cc\
.	.	16cc\JJ
8r	4E\	8b/L
8E/L	.	8g#/J
8C/	8r	16ee\LL
.	.	16ee\
8AA/J	8AA/	16cc\
.	.	16cc\JJ
=237	=237	=237
4E\	8E\L	8b/L
.	8e\	8g#/J
8r	8c\	16a\LL
.	.	16a\
8A\	8A\J	16cc\
.	.	16cc\JJ
8G#\L	8G#\L	16b\LL
.	.	16b\
8E\J	8E\	16dd\
.	.	16dd\JJ
8A\L	8A\	16cc\LL
.	.	16cc\
8C\J	8C\J	16ee\
.	.	16ee\JJ
=238	=238	=238
8E\L	8E\L	16g#/LL
.	.	16g#/
8D\J	8D\J	16b/
.	.	16b/JJ
8C/L	8C/L	16e/LL
.	.	16e/
8GG#/J	8GG/J	16ee/
.	.	16ee/JJ
8AA/L	16AA\LL	8cc\L
.	16A\	.
8BB/J	16Gn\	8dd\
.	16F\JJ	.
8C/L	16E\LL	8ee\
.	16A\	.
8AA/J	16G\	8cc\J
.	16A\JJ	.
=239	=239	=239
8D\L	16F\LL	8b\L
.	16G\	.
8E\J	16E\	8cc\
.	16F\JJ	.
8D/L	16D\LL	8b\
.	16E\	.
8C/J	16C\	8a\J
.	16D\JJ	.
8BB/L	16BB/LL	8dd\L
.	16C/	.
8AA/	16AA/	8cc\
.	16BB/JJ	.
8GG/	16GG/LL	8ee\
.	16AA/	.
8FF/J	16FF/	8dd\J
.	16GG/JJ	.
=240	=240	=240
4EE/	8EE/	16cc\LL
.	.	16dd\
*	*clefC3	*
.	8g#\L	16b\
.	.	16cc\JJ
4FF/	8a\	16dd\LL
.	.	16ee\
.	8a\J	16cc\
.	.	16dd\JJ
4DD/	8a\L	8b/L
.	8a\	8b/
4EE/	8.a\	8.b/
.	16g#\Jk	16a/Jk
=241	=241	=241
4AA/	4a\	4a/
4r	4r	8r
.	.	8aa\
2r	2r	4gg#\
.	.	4ggn\
=242	=242	=242
4r	1r	4ff#\
4A\	.	4ffn\
4G#\	.	4ee\
4Gn\	.	[4dd#\
=243	=243	=243
4F#\	4r	4dd#\]
4Fn\	4a\	2ddn\
4E\	4g#\	.
4D#\	4gn\	[4cc\
=244	=244	=244
2Dn\	4f#\	4cc\]
.	4fn\	2b-\
4C#/	2e\	.
4Cn/	.	4a/
=245	=245	=245
4BB/	4d\	4g#/
4AA/	4c\	[4a/
2E\	2B/	4a/]
.	.	4g#/
=246	=246	=246
1AA;	1c#;	1a;
==	==	==
*-	*-	*-
!!!ENC: Craig Stuart Sapp
!!!END: 2004/12/15/
